!!!!SEGMENT: pl-kk--kk-i-3--055_anonim--prosa-ave-salvatoris-mater.krn
!!!cenid: 15xx:714
!!!COM: Anonim
!!!COM-rismid: pe30004985
!!!CDT:
!!!CNT:
!!!OTL: Prosa/Ave salvatoris mater
!!!PDT:
!!!AGN:
!!!SMS-siglum: PL-Kk
!!!SMS-shelfmark: Kk.I.3
!!!SMS-shelfwork: 055 W
!!!SMS-variant:
!!!SMS-altvar:
!!!NIFC-rismid: 1001145493
!!!URL-scan: http://repozytorium.nifc.pl/skany/pl-kk-nut--i-3
!!!ONB-nifc: UWAGA: Discantus (s. 152r-153v, skan 0154-0156), Tenor (s. 112v-114r, skan 0285-0286), Bassus (s. 146r-147v, skan 0449-0451)
**kern	**text	**text	**kern	**text	**text	**kern	**text	**text
*part3	*part3	*part3	*part2	*part2	*part2	*part1	*part1	*part1
*staff3	*staff3	*staff3	*staff2	*staff2	*staff2	*staff1	*staff1	*staff1
*I"[Bassus]	*	*	*I"[Tenor]	*	*	*I"[Discantus]	*	*
*I'B	*	*	*I'T	*	*	*I'S	*	*
*ICvox	*	*	*ICvox	*	*	*ICvox	*	*
*Ibass	*	*	*Itenor	*	*	*Isoprn	*	*
*clefF4	*	*	*clefC4	*	*	*clefC3	*	*
*k[]	*	*	*k[]	*	*	*k[]	*	*
*a:	*	*	*a:	*	*	*a:	*	*
*yyM2/1	*	*	*yyM2/1	*	*	*yyM2/1	*	*
=1	=1	=1	=1	=1	=1	=1	=1	=1
*	*	*	*lig	*	*	*	*	*
!	!	!	!	!	!	!LO:TX:t=P:problem:brak źródła tekstowego	!	!
!!LO:TX:t=P:problem: brak metrum	!	!	!	!	!	!	!	!
2E\	A-	A-	1E	A-	A-	1e	A-	A-
2C/	.	.	.	.	.	.	.	.
!LO:SIC:v:t=custos C	!	!	!	!	!	!	!	!
1D	.	.	1F	.	.	2d\	-ve	-ve
.	.	.	.	.	.	2f\	.	.
!LO:LB:g=original	!	!	!	!	!	!	!	!
*	*	*	*Xlig	*	*	*	*	*
=2	=2	=2	=2	=2	=2	=2	=2	=2
0C	.	.	1G	.	.	2e\	.	.
.	.	.	.	.	.	2.g\	.	.
.	.	.	1E	-ve	-ve	.	.	.
.	.	.	.	.	.	4f\	.	.
.	.	.	.	.	.	2.e\	.	.
=3	=3	=3	=3	=3	=3	=3	=3	=3
*	*	*	*lig	*	*	*	*	*
1D	-ve	-ve	1F	Sal-	nam	.	.	.
.	.	.	.	.	.	4d\	.	.
.	.	.	.	.	.	1d	.	.
1AA	.	.	1E	.	.	.	.	.
.	.	.	.	.	.	2c/	.	.
*	*	*	*Xlig	*	*	*	*	*
=4	=4	=4	=4	=4	=4	=4	=4	=4
2A\	Sal-	nam	1D	-va-	te	1d	.	.
2F\	-va-	te	.	.	.	.	.	.
1E	-to-	De-	1G	-to-	De-	2r	.	.
.	.	.	.	.	.	2c/	Sal-	nam
=5	=5	=5	=5	=5	=5	=5	=5	=5
1D	-ris	-us	1A	-ris	-us	2d\	-va-	te
.	.	.	.	.	.	1f	-to-	De-
*	*	*	*lig	*	*	*	*	*
2r	.	.	1c	ma-	pa-	.	.	.
!	!	!	!	!	!	!LO:SIC:v:t=custos d	!	!
2C/	ma-	pa-	.	.	.	2e\	-ris	-us
!	!	!	!	!	!	!LO:LB:g=original	!	!
=6	=6	=6	=6	=6	=6	=6	=6	=6
1D	.	.	1B	.	.	1d	ma-	Pa-
*lig	*	*	*Xlig	*	*	*	*	*
!	!	!	!LO:SIC:v:t=custos B	!	!	!	!	!
1F	.	.	1A	-ter	-ter	2.c/	.	.
.	.	.	.	.	.	4d\	.	.
!	!	!	!LO:LB:g=original	!	!	!	!	!
=7	=7	=7	=7	=7	=7	=7	=7	=7
1E	.	.	1B	Ma-	e-	0e	-ter	-ter
*Xlig	*	*	*	*	*	*	*	*
2AA/	-ter	-ter	1c	-ri-	-le-	.	.	.
2A\	.	.	.	.	.	.	.	.
=8	=8	=8	=8	=8	=8	=8	=8	=8
1G	Ma-	e-	1d	-a	-git	2r	.	.
.	.	.	.	.	.	2d\	Ma-	e-
*	*	*	*lig	*	*	*	*	*
2.F\	-ri-	-le-	1A	San-	ca-	1f	.	-le-
!LO:SIC:v:t=custos C	!	!	!	!	!	!	!	!
4E\	-a	-git	.	.	.	.	.	.
!LO:LB:g=original	!	!	!	!	!	!	!	!
=9	=9	=9	=9	=9	=9	=9	=9	=9
1C	.	.	1G	.	.	2e\	-ri-	.
.	.	.	.	.	.	2.e\	-a	-git
*	*	*	*Xlig	*	*	*	*	*
*	*	*	*lig	*	*	*	*	*
2.D/	.	.	1F	.	.	.	.	.
.	.	.	.	.	.	4d\	.	.
.	.	.	.	.	.	1d	.	.
4C/	ſan-	ca-	.	.	.	.	.	.
=10	=10	=10	=10	=10	=10	=10	=10	=10
4AA/	.	.	1E	.	.	.	.	.
4BB/	.	.	.	.	.	.	.	.
2C/	.	.	.	.	.	2c/	San-	caſ-
*	*	*	*Xlig	*	*	*	*	*
1BB	.	.	1D	-ctiſ-	-ſtiſ	1d	-ctiſ-	-tiſ-
=11	=11	=11	=11	=11	=11	=11	=11	=11
2AA/	.	.	1E	-ſi-	-ſi-	2.c/	.	-ſi-
1AA	-ctiſ-	-ſtiſ-	.	.	.	.	.	.
.	.	.	.	.	.	4B/	.	.
.	.	.	0.E	-ma	-ma	2A/	-ſi-	-ma
2GG/	-ſi-	-ſi-	.	.	.	2B/	-i-	.
=12	=12	=12	=12	=12	=12	=12	=12	=12
!	!	!	!LO:SIC:v:t=custos c	!	!	!	!	!
1AA	-ma	-ma	.	.	.	1c	-ma.	.
!LO:SIC:v:t=custos C	!	!	!	!	!	!LO:SIC:v:t=custos g	!	!
!LO:N:vis=0	!	!	!	!	!	!LO:N:vis=0	!	!
1E	.	.	.	.	.	1B	.	.
=13||	=13||	=13||	=13||	=13||	=13||	=13||	=13||	=13||
4C/	Gau-	Gau-	1c	Gau-	Gau-	0g	Gau-	Gau-
4D/	.	.	.	.	.	.	.	.
4E\	.	.	.	.	.	.	.	.
4F\	.	.	.	.	.	.	.	.
4G\	.	.	1G	-de	-de	.	.	.
4A\	.	.	.	.	.	.	.	.
2.B\	.	.	.	.	.	.	.	.
=14	=14	=14	=14	=14	=14	=14	=14	=14
.	.	.	1A	quae-	quae-	1e	-de	-de
4A\	.	.	.	.	.	.	.	.
1A	.	.	.	.	.	.	.	.
*	*	*	*lig	*	*	*	*	*
.	.	.	1E	-as	-as	1e	.	.
2G\	-de	de	.	.	.	.	.	.
=15	=15	=15	=15	=15	=15	=15	=15	=15
2A\	.	.	1F	.	.	2c/	quae-	quae-
2D/	quae-	quae-	.	.	.	2f\	.	.
*	*	*	*Xlig	*	*	*	*	*
2E\	-as	-as	1G	ſa-	de-	1e	-as	-as
2C/	de-	ſa-	.	.	.	.	.	.
=16	=16	=16	=16	=16	=16	=16	=16	=16
*	*	*	*	*	*	*lig	*	*
2D/	-co-	-lu-	1D	-lu-	-co-	1f	ſa-	de-
2D/	-ra-	-ta-	.	.	.	.	.	.
*	*	*	*lig	*	*	*	*	*
1AA	-ta	-ta	1C	-ta-	-ra-	1e	-lu-	-co-
*	*	*	*	*	*	*Xlig	*	*
=17	=17	=17	=17	=17	=17	=17	=17	=17
2r	.	.	1D	.	.	2d\	-ta-	-ra-
1D	de-	Ga-	.	.	.	2f\	-ta	-ta
*	*	*	*Xlig	*	*	*	*	*
.	.	.	1E	.	-ta	1e	.	.
!LO:SIC:v:t=custos D	!	!	!	!	!	!	!	!
2C/	-co-	-bri-	.	.	.	.	.	.
!LO:LB:g=original	!	!	!	!	!	!	!	!
=18	=18	=18	=18	=18	=18	=18	=18	=18
*	*	*	*lig	*	*	*	*	*
1D	-ra-	-e-	1F	-ta	ſu-	2r	.	.
.	.	.	.	.	.	1d	Ga-	ſu-
1AA	-ta	-le	1E	Ga-	.	.	.	.
.	.	.	.	.	.	2c/	-bri-	-a-
*	*	*	*Xlig	*	*	*	*	*
=19	=19	=19	=19	=19	=19	=19	=19	=19
!	!	!	!LO:SIC:v:t=custos G	!	!	!	!	!
2r	.	.	1D	.	-a-	1d	-e-	-vi
!LO:TX:t=P:problem:nieczytelny zapis I tekstu	!	!	!	!	!	!	!	!
2D/	.	Ga-	.	.	.	.	.	.
!	!	!	!LO:LB:g=original	!	!	!	!	!
*	*	*	*lig	*	*	*	*	*
2E\	.	-bri-	1G	-bri-	-vi	2B/	.	.
2C/	.	-e-	.	.	.	1e	le	prae
=20	=20	=20	=20	=20	=20	=20	=20	=20
1F	.	-le	1A	-e-	.	.	.	.
!	!	!	!	!	!	!LO:SIC:v:t=custos e	!	!
.	.	.	.	.	.	2d\	.	.
*	*	*	*Xlig	*	*	*	*	*
*	*	*	*lig	*	*	*	*	*
!	!	!	!	!	!	!LO:LB:g=original	!	!
2E\	prae	.	1G	.	prae	1e	.	.
2C/	co-	nun-	.	.	.	.	.	.
=21	=21	=21	=21	=21	=21	=21	=21	=21
1D	-ni-	-ci-	1F	-le	.	2A/	.	.
.	.	.	.	.	.	1d	.	.
*	*	*	*Xlig	*	*	*	*	*
2AA/	-o	-o	1E	.	.	.	.	.
1C	.	.	.	.	.	2c/	nun-	co-
=22	=22	=22	=22	=22	=22	=22	=22	=22
.	.	.	1D	nun-	co-	1d	-ci-	-ni-
2BB/	.	.	.	.	.	.	.	.
2AA/	.	.	1E	-ci-	-ni-	2c/	-o	-o.
2GG/	.	.	.	.	.	2B/	.	.
=23	=23	=23	=23	=23	=23	=23	=23	=23
1AA	.	.	0E	-o	-o.	2A/	.	.
.	.	.	.	.	.	2c/	.	.
!LO:SIC:v:t=custos G	!	!	!	!	!	!	!	!
!	!	!	!	!	!	!LO:N:vis=0	!	!
!LO:N:vis=0	!	!	!	!	!	!	!	!
1E	.	.	.	.	.	1B	.	.
!LO:LB:g=original	!	!	!	!	!	!	!	!
=24||	=24||	=24||	=24||	=24||	=24||	=24||	=24||	=24||
1G	Sal-	Sal-	1C	Sal-	Sal-	1e	Sal-	Sal-
!	!	!	!LO:SIC:v:t=custos F	!	!	!	!	!
2F\	-ve	-ve	1D	-ve	-ve	2d\	-ve	-ve
1A	.	.	.	.	.	1f	.	.
!	!	!	!LO:LB:g=original	!	!	!	!	!
=25	=25	=25	=25	=25	=25	=25	=25	=25
*	*	*	*lig	*	*	*	*	*
.	.	.	1F	Ma-	ſum-	.	.	.
4G\	Ma-	ſum-	.	.	.	4e\	.	.
4F\	-ri-	-me	.	.	.	4d\	.	.
1G	-a	.	1E	.	.	4e\	Ma-	ſum-
.	.	.	.	.	.	4f\	.	.
.	.	.	.	.	.	2g\	-ri-	-me
*	*	*	*Xlig	*	*	*	*	*
=26	=26	=26	=26	=26	=26	=26	=26	=26
!	!	!	!	!	!	!LO:SIC:v:t=custos f	!	!
2A\	be-	De-	1D	-ri-	-me	2f\	-a	.
!	!	!	!	!	!	!LO:LB:g=original	!	!
1A	-a-	-o	.	.	.	2.f\	.	.
.	.	.	1F	-a	De-	.	.	.
.	.	.	.	.	.	4e\	.	.
4G\	.	.	.	.	.	1d	be-	De-
4F\	-ta	.	.	.	.	.	.	.
=27	=27	=27	=27	=27	=27	=27	=27	=27
1E	.	.	1G	be-	-o	.	.	.
.	.	.	.	.	.	2c/	-a-	-o
*	*	*	*lig	*	*	*	*	*
1D	De-	gra-	1A	-a-	gra-	2d\	-ta	gra-
.	.	.	.	.	.	2.f\	.	-ta
=28	=28	=28	=28	=28	=28	=28	=28	=28
2E\	-i	-ta	1G	.	.	.	.	.
.	.	.	.	.	.	4e\	.	.
2C/	ple-	.	.	.	.	1e	.	.
*	*	*	*Xlig	*	*	*	*	*
*	*	*	*lig	*	*	*	*	*
1D	.	o-	1F	-ta	-ta	.	.	.
.	.	.	.	.	.	2d\	De-	.
=29	=29	=29	=29	=29	=29	=29	=29	=29
1G	-na	-mnis	1E	.	.	0e	-i	.
*	*	*	*Xlig	*	*	*	*	*
2E\	.	.	1G	De-	om-	.	.	.
1G	.	la-	.	.	.	.	.	.
=30	=30	=30	=30	=30	=30	=30	=30	=30
!	!	!	!LO:SIC:v:t=custos G	!	!	!	!	!
.	.	.	1D	-i	-nis	2r	.	.
!LO:SIC:v:t=custos E	!	!	!	!	!	!	!	!
2F\	.	-bis	.	.	.	1d	ple-	o-
!LO:LB:g=original	!	!	!	!	!	!	!	!
!	!	!	!LO:LB:g=original	!	!	!	!	!
1E	gra-	neſ-	1G	ple-	la-	.	.	.
.	.	.	.	.	.	2c\	.	-mnis
=31	=31	=31	=31	=31	=31	=31	=31	=31
*	*	*	*lig	*	*	*	*	*
1D	ti-	-ci-	1F	-na	-bis	1d	-na	la-
1C	-a	-a	1E	.	.	1e	gra-	-bis
*	*	*	*Xlig	*	*	*	*	*
=32	=32	=32	=32	=32	=32	=32	=32	=32
2r	.	.	1D	gra-	neſ-	1f	.	ne-
2D/	.	.	.	.	.	.	.	.
2C/	.	.	1E	-ti-	-ci-	1e	-ti-	-ſci-
2AA/	.	.	.	.	.	.	.	.
=33	=33	=33	=33	=33	=33	=33	=33	=33
!	!	!	!	!	!	!LO:SIC:v:t=custos g	!	!
0E	.	.	0E	-a	-a	0e	-a	-a.
!	!	!	!	!	!	!LO:LB:g=original	!	!
=34||	=34||	=34||	=34||	=34||	=34||	=34||	=34||	=34||
1G	Plau-	Plau-	1G	Plau-	Plau-	1g	Plau-	Plau-
2D/	.	.	1A	-de	-de	1f	.	.
2G\	-de	-de	.	.	.	.	.	.
=35	=35	=35	=35	=35	=35	=35	=35	=35
*	*	*	*lig	*	*	*	*	*
4C/	nam-	ma-	1c	nam-	ma-	1e	-de	-de
4D/	.	.	.	.	.	.	.	.
4E\	.	-lum	.	.	.	.	.	.
4F\	.	.	.	.	.	.	.	.
1G	-que	o-	1B	.	.	0d	nam-	ma-
*	*	*	*Xlig	*	*	*	*	*
=36	=36	=36	=36	=36	=36	=36	=36	=36
!	!	!	!LO:SIC:v:t=custos c	!	!	!	!	!
2D/	ti-	-mne	1A	-que	-lum	.	.	.
!LO:SIC:v:t=custos E	!	!	!	!	!	!	!	!
2F\	-bi	.	.	.	.	.	.	.
!LO:LB:g=original	!	!	!	!	!	!	!	!
!	!	!	!LO:LB:g=original	!	!	!	!	!
2E\	.	.	1c	ti-	om-	4e\	-(que)	-lum
.	.	.	.	.	.	4d\	.	.
1F	.	.	.	.	.	4c/	.	.
.	.	.	.	.	.	4B/	ti-	om-
=37	=37	=37	=37	=37	=37	=37	=37	=37
*	*	*	*lig	*	*	*	*	*
.	.	.	1c	-bi	-ne	4A/	-bi	-ne
.	.	.	.	.	.	4B/	.	.
2E\	.	.	.	.	.	1c	.	.
1D	a-	a-	1d	.	.	.	.	.
.	.	.	.	.	.	2B/	a-	a-
*	*	*	*Xlig	*	*	*	*	*
=38	=38	=38	=38	=38	=38	=38	=38	=38
*	*	*	*lig	*	*	*	*	*
1C	-deſt	-deſt	1e	.	.	1c	-deſt	-deſt
2r	.	.	1d	.	.	2G/	.	.
2G\	.	.	.	.	.	1g	.	.
*	*	*	*Xlig	*	*	*	*	*
=39	=39	=39	=39	=39	=39	=39	=39	=39
*	*	*	*lig	*	*	*	*	*
2E\	.	.	1c	a-	a-	.	.	.
2F\	.	.	.	.	.	4f\	.	.
.	.	.	.	.	.	4e\	.	.
1G	.	.	1B	.	.	1d	.	.
*	*	*	*Xlig	*	*	*	*	*
=40	=40	=40	=40	=40	=40	=40	=40	=40
*lig	*	*	*	*	*	*	*	*
1C	Do-	a	1c	.	.	2e\	.	.
!	!	!	!	!	!	!LO:SIC:v:t=custos f	!	!
.	.	.	.	.	.	1g	.	.
*	*	*	*lig	*	*	*	*	*
1D	.	.	1A	-deſt	-deſt	.	.	.
!	!	!	!	!	!	!LO:LB:g=original	!	!
.	.	.	.	.	.	2f\	.	.
*Xlig	*	*	*	*	*	*	*	*
=41	=41	=41	=41	=41	=41	=41	=41	=41
1E	-mi-	ge-	1G	.	.	1e	.	.
*	*	*	*Xlig	*	*	*	*	*
*	*	*	*lig	*	*	*	*	*
2D/	-na-	-ne-	1F	do-	a	2A/	.	.
2F\	-tor	-re	.	.	.	1d	.	.
=42	=42	=42	=42	=42	=42	=42	=42	=42
!LO:SIC:v:t=custos D	!	!	!	!	!	!	!	!
1E	.	.	1G	.	.	.	.	.
.	.	.	.	.	.	2c/	.	.
!LO:LB:g=original	!	!	!	!	!	!	!	!
*lig	*	*	*Xlig	*	*	*	*	*
*	*	*	*lig	*	*	*	*	*
1D	.	.	1A	.	.	2d\	do-	a
.	.	.	.	.	.	2f\	-mi-	ge-
=43	=43	=43	=43	=43	=43	=43	=43	=43
1E	.	.	1G	.	.	1e	-na-	-ne-
*Xlig	*	*	*Xlig	*	*	*	*	*
!	!	!	!LO:SIC:v:t=custos G	!	!	!	!	!
2D/	.	.	1A	.	.	2A/	-tor	-re
1D	.	.	.	.	.	2d\	.	.
!	!	!	!LO:LB:g=original	!	!	!	!	!
=44	=44	=44	=44	=44	=44	=44	=44	=44
.	.	.	1G	-mi-	ge-	1e	.	.
2C/	om-	ho-	.	.	.	.	.	.
*	*	*	*lig	*	*	*	*	*
1D	-ni-	-mi-	1F	-na-	-ne-	2f\	.	.
.	.	.	.	.	.	2d\	o-	ho-
=45	=45	=45	=45	=45	=45	=45	=45	=45
1AA	-um	-nu(m)	1E	.	.	1e	-mni-	-mi-
*	*	*	*Xlig	*	*	*	*	*
2.D/	.	.	1F	.	.	1.d	-um	-num
4E\	.	.	.	.	.	.	.	.
=46	=46	=46	=46	=46	=46	=46	=46	=46
2.F\	.	.	1D	-tor	-re	.	.	.
.	.	.	.	.	.	2.f\	.	.
8E/L	.	.	.	.	.	.	.	.
8D/J	.	.	.	.	.	.	.	.
1C	.	.	1G	om-	ho-	.	.	.
.	.	.	.	.	.	4e\	.	.
.	.	.	.	.	.	1e	.	.
=47	=47	=47	=47	=47	=47	=47	=47	=47
*	*	*	*lig	*	*	*	*	*
1D	.	.	1F	-ni-	.	.	.	.
.	.	.	.	.	.	2d\	.	.
0.AA	.	.	1E	.	-mi-	0.e	.	.
*	*	*	*Xlig	*	*	*	*	*
=48	=48	=48	=48	=48	=48	=48	=48	=48
!	!	!	!	!	!	!LO:SIC:v:t=custos e	!	!
.	.	.	0E	-um	-num	.	.	.
!	!	!	!	!	!	!LO:LB:g=original	!	!
=49||	=49||	=49||	=49||	=49||	=49||	=49||	=49||	=49||
1E	Va-	Eu-	1B	Va-	Eu-	1e	Va-	E-
!LO:SIC:v:t=custos C	!	!	!LO:SIC:v:t=custos e	!	!	!	!	!
1D	-le	-ge	1d	-le	-ge	1f	-le	-u-
!LO:LB:g=original	!	!	!	!	!	!	!	!
!	!	!	!LO:LB:g=original	!	!	!	!	!
=50	=50	=50	=50	=50	=50	=50	=50	=50
2C/	in	De-	1e	in	De-	2e\	in	-ge
2.AA/	mu-	-i	.	.	.	1d	mu-	De-
.	.	.	1e	mu-	-i	.	.	.
4BB/	.	et	.	.	.	.	.	.
4C/	.	.	.	.	.	4c/	-li-	-i
4D\	.	.	.	.	.	4B/	-e-	et
=51	=51	=51	=51	=51	=51	=51	=51	=51
2E\	.	ho-	1e	-li-	et	2G/	-ri-	ho-
2C/	-li-	-mi-	.	.	.	2c/	-bus	-mi-
1D	-e-	-nis	1d	-e-	ho-	2A/	.	-nis
.	.	.	.	.	.	1d	.	.
=52	=52	=52	=52	=52	=52	=52	=52	=52
1AA	-ri-	.	1e	-ri-	-mi-	.	.	.
.	.	.	.	.	.	2c/	.	.
1D	-bus	.	1d	-bus	-nis	2d\	be-	pa-
.	.	.	.	.	.	2f\	-ne-	-rens
=53	=53	=53	=53	=53	=53	=53	=53	=53
*	*	*	*lig	*	*	*	*	*
1E	.	.	1B	be-	pa-	2.e\	-di-	.
.	.	.	.	.	.	4d\	-cta	.
2AA/	be-	pa-	1c	.	.	4c/	.	.
.	.	.	.	.	.	4B/	.	.
2C/	-ne-	-rens	.	.	.	1A	.	.
*	*	*	*Xlig	*	*	*	*	*
=54	=54	=54	=54	=54	=54	=54	=54	=54
1BB	-di-	.	1d	-ne-	-rens	.	.	.
!	!	!	!	!	!	!LO:SIC:v:t=custos A	!	!
.	.	.	.	.	.	2G/	.	.
!	!	!	!	!	!	!LO:LB:g=original	!	!
*	*	*	*lig	*	*	*	*	*
2AA/	-cta	.	1c	-di-	ſpe-	4A/	.	.
.	.	.	.	.	.	4B/	.	.
1A	be-	ſpe-	.	.	.	4c\	.	.
.	.	.	.	.	.	4d\	.	.
=55	=55	=55	=55	=55	=55	=55	=55	=55
!	!	!	!LO:SIC:v:t=custos A	!	!	!	!	!
.	.	.	1B	.	.	4e\	.	.
.	.	.	.	.	.	4f\	.	.
2G\	-ne-	-ci-	.	.	.	2g\	.	.
!	!	!	!LO:LB:g=original	!	!	!	!	!
*	*	*	*Xlig	*	*	*	*	*
*	*	*	*lig	*	*	*	*	*
2F\	-di-	-a-	1A	-cta	-ci-	2c/	.	.
2D/	-cta	.	.	.	.	2.f\	vo-	ſpe-
=56	=56	=56	=56	=56	=56	=56	=56	=56
!LO:SIC:v:t=custos F	!	!	!	!	!	!	!	!
1E	vo-	-lis	1G	.	.	.	.	.
.	.	.	.	.	.	4e\	-ca-	-ci-
.	.	.	.	.	.	1e	-ris	-a-
!LO:LB:g=original	!	!	!	!	!	!	!	!
*	*	*	*Xlig	*	*	*	*	*
1F	-ca-	es	1A	vo-	-a-	.	.	.
.	.	.	.	.	.	2d\	.	-lis
=57	=57	=57	=57	=57	=57	=57	=57	=57
0E	-ris	.	1B	-ca-	-lis	1e	.	es
.	.	.	1B	-ris	es	1e	va-	eu-
=58	=58	=58	=58	=58	=58	=58	=58	=58
2r	.	.	1c	va-	eu-	2c/	-le	-ge
2AA/	va-	eu-	.	.	.	2.e\	.	.
2C/	-le	-ge	1A	-le	-ge	.	.	.
.	.	.	.	.	.	4d\	.	.
2D/	Chri-	ma-	.	.	.	1d	chri-	ma-
=59	=59	=59	=59	=59	=59	=59	=59	=59
1E	-stum	-tris	1G	Chri-	ma-	.	.	.
.	.	.	.	.	.	2c/	-ſtum	-tris
*	*	*	*lig	*	*	*	*	*
2.D/	ho-	et	1F	-ſtum	-tris	2.f\	.	.
4C/	-mi-	Vir-	.	.	.	4e\	ho-	et
=60	=60	=60	=60	=60	=60	=60	=60	=60
1BB	-ni-	-gi-	1G	.	et	4d\	.	.
.	.	.	.	.	.	4c/	.	.
.	.	.	.	.	.	1d	-mi-	vir-
!	!	!	!	!	!	!LO:SIC:v:t=custos d	!	!
*	*	*	*Xlig	*	*	*	*	*
1AA	-bus	-nis	1A	ho-	Vir-	.	.	.
.	.	.	.	.	.	2c/	-ni-	-gni-
!	!	!	!	!	!	!LO:LB:g=original	!	!
=61	=61	=61	=61	=61	=61	=61	=61	=61
!	!	!	!LO:SIC:v:t=custos G	!	!	!	!	!
2r	.	.	1A	-mi-	-gi-	1d	-bus	-nis
2D/	.	.	.	.	.	.	.	.
!	!	!	!LO:LB:g=original	!	!	!	!	!
2BB/	.	.	1G	.	.	2g\	.	.
2C/	.	.	.	.	.	2e\	.	.
=62	=62	=62	=62	=62	=62	=62	=62	=62
*	*	*	*lig	*	*	*	*	*
1D	.	.	1F	-ni-	.	2f\	.	.
.	.	.	.	.	.	2d\	.	.
*lig	*	*	*	*	*	*	*	*
1C	.	.	1E	.	.	1e	.	.
*	*	*	*Xlig	*	*	*	*	*
=63	=63	=63	=63	=63	=63	=63	=63	=63
!LO:SIC:v:t=custos GG	!	!	!	!	!	!	!	!
1D	.	.	1F	.	.	1d	.	.
!LO:LB:g=original	!	!	!	!	!	!	!	!
*Xlig	*	*	*	*	*	*	*	*
1GG	.	.	1D	-bus	-nis	2r	.	.
.	.	.	.	.	.	2d\	ſi-	no-
=64	=64	=64	=64	=64	=64	=64	=64	=64
2r	.	.	1D	ſi-	no-	2d\	-ne	-nem
2D/	ſi-	no-	.	.	.	2f\	do-	et
2E\	-ne	-me(n)	1C	-ne	-men	4e\	-lo-	rem
.	.	.	.	.	.	4d\	.	.
2G\	do-	.	.	.	.	4c/	-re	.
.	.	.	.	.	.	4B/	.	.
=65	=65	=65	=65	=65	=65	=65	=65	=65
2.F\	-lo-	et	1D	do-	et	2A/	.	ob-
.	.	.	.	.	.	2.d\	pa-	-ti-
4E\	-re	rem	.	.	.	.	.	.
*	*	*	*lig	*	*	*	*	*
4D/	.	.	1F	-lo-	rem	.	.	.
4C/	.	.	.	.	.	4e\	-ris.	-nes.
1D	pa-	ob-	.	.	.	4f\	.	.
!	!	!	!	!	!	!LO:SIC:v:t=custos e	!	!
.	.	.	.	.	.	4d\	.	.
!	!	!	!	!	!	!LO:LB:g=original	!	!
=66	=66	=66	=66	=66	=66	=66	=66	=66
.	.	.	1E	.	.	1e	.	.
2C/	-nis	-ti-	.	.	.	.	.	.
*	*	*	*Xlig	*	*	*	*	*
1D	.	-nes	1D	-re	ob-	2f\	.	.
.	.	.	.	.	.	1d	.	.
=67	=67	=67	=67	=67	=67	=67	=67	=67
1AA	.	.	1E	pa-	-ti-	.	.	.
.	.	.	.	.	.	4c#X/	.	.
.	.	.	.	.	.	4B/	.	.
!	!	!	!LO:SIC:v:t=custos G	!	!	!	!	!
!LO:N:vis=0	!	!	!LO:N:vis=0	!	!	!LO:N:vis=0	!	!
1AA	.	.	1E	-ris.	-nes.	1c#	.	.
!	!	!	!LO:LB:g=original	!	!	!	!	!
=68||	=68||	=68||	=68||	=68||	=68||	=68||	=68||	=68||
4GG/	Pan-	Pan-	1G	Pan-	Pan-	2.d\	Pan-	Pan-
4AA/	.	.	.	.	.	.	.	.
4BB/	.	.	.	.	.	.	.	.
4C/	.	.	.	.	.	4e\	-ge	-ge
2D/	.	.	1D	-ge	-ge	2f\	.	.
!LO:SIC:v:t=custos D	!	!	!	!	!	!	!	!
2GG/	-ge	-ge	.	.	.	1g	qui-	is
!LO:LB:g=original	!	!	!	!	!	!	!	!
=69	=69	=69	=69	=69	=69	=69	=69	=69
1D	qui-	is	1D	qui-	is	.	.	.
.	.	.	.	.	.	2f\	-a	eſt
2AA/	-a	eſt	1C	-a	eſt	1e	.	.
2C/	be-	Je-	.	.	.	.	.	.
=70	=70	=70	=70	=70	=70	=70	=70	=70
1BB	-ne-	-ſus	1D	be-	Je-	1d	be-	Je-
2AA/	-di-	Chri-	1E	-ne-	-ſus	2c/	-ne-	-ſus
2GG/	-ctus	-ſtus	.	.	.	2B/	-di-	.
=71	=71	=71	=71	=71	=71	=71	=71	=71
!	!	!	!	!	!	!LO:SIC:v:t=custos G	!	!
1AA	.	.	1E	-di-	Chri-	1A	.	Chri-
!	!	!	!	!	!	!LO:LB:g=original	!	!
1EE	.	.	1E	-ctus	-stus	2G/	-ctus	-ſtus
.	.	.	.	.	.	2g\	tu-	Je-
=72	=72	=72	=72	=72	=72	=72	=72	=72
*	*	*	*lig	*	*	*	*	*
1r	.	.	1F	tu-	pro-	2f\	.	-ſus
.	.	.	.	.	.	2d\	.	.
2r	.	.	1E	.	.	1e	-i	Ch(ri)-
2G\	tu-	pro-	.	.	.	.	.	.
*	*	*	*Xlig	*	*	*	*	*
=73	=73	=73	=73	=73	=73	=73	=73	=73
2F\	.	.	1D	-i	-pter	2.f\	ven-	-(st)us
2D/	-i	-pter	.	.	.	.	.	.
.	.	.	.	.	.	4f\	-tris	pro-
*	*	*	*lig	*	*	*	*	*
1E	Ven-	nos	1G	ven-	nos	2e\	.	-pt(er)
.	.	.	.	.	.	2g\	.	nos
=74	=74	=74	=74	=74	=74	=74	=74	=74
!	!	!	!LO:SIC:v:t=custos G	!	!	!	!	!
2.F\	-tris	.	1A	.	.	2f\	.	.
.	.	.	.	.	.	2d\	eſt	.
4F\	.	in	.	.	.	.	.	.
!	!	!	!LO:LB:g=original	!	!	!	!	!
*	*	*	*Xlig	*	*	*	*	*
*	*	*	*lig	*	*	*	*	*
1.E	e(ſt)	ter-	1G	-tris	in	1e	.	in
=75	=75	=75	=75	=75	=75	=75	=75	=75
.	.	.	1F	.	.	2f\	.	ter-
!LO:SIC:v:t=custos C	!	!	!	!	!	!	!	!
2D\	fru-	-ra(m)	.	.	.	2d\	fru-	-ra(m)-
*	*	*	*Xlig	*	*	*	*	*
!LO:LB:g=original	!	!	!	!	!	!	!	!
2C/	-cu(s)	in	1E	eſt	ter-	2e\	.	.
2AA/	ven-	ter-	.	.	.	2c/	-ctus.	.
=76	=76	=76	=76	=76	=76	=76	=76	=76
1BB	-tris	-ram	1D	fru-	-ram	1d	.	.
2.AA/	e(ſt)	duc-	1E	.	duc-	2.c/	.	.
4AA/	fru-	.	.	.	.	4c/	.	-duc-
=77	=77	=77	=77	=77	=77	=77	=77	=77
!	!	!	!	!	!	!LO:SIC:v:t=custos e	!	!
0EE	-ctu(s)	-tus.	0E	-ctus	-tus	0B	.	-tus
!	!	!	!	!	!	!LO:LB:g=original	!	!
=78||	=78||	=78||	=78||	=78||	=78||	=78||	=78||	=78||
1E	E-	E-	1G	E-	E-	1e	E-	E-
2AA/	-ia	-ia	1A	-ia	-ia	1e	-ia	-iano-
1C	Je-	no-	.	.	.	.	.	.
=79	=79	=79	=79	=79	=79	=79	=79	=79
.	.	.	1c	Je-	no-	2c\	Je-	-bis
2C/	-ſu	-bis	.	.	.	2.g\	-ſu	.
!LO:SIC:v:t=custos AA	!	!	!LO:SIC:v:t=custos c	!	!	!	!	!
1C	be-	hoc	1G	-ſu	-bis	.	.	.
.	.	.	.	.	.	4f\	.	.
.	.	.	.	.	.	4e\	.	.
.	.	.	.	.	.	4d\	.	.
!LO:LB:g=original	!	!	!	!	!	!	!	!
!	!	!	!LO:LB:g=original	!	!	!	!	!
=80	=80	=80	=80	=80	=80	=80	=80	=80
1AA	-ne-	vt	1c	be-	hoc	2e\	be-	hoc
.	.	.	.	.	.	2e\	-ne-	.
1AA	-di-	prae-	1A	-ne-	vt	1c	-di-	vt
=81	=81	=81	=81	=81	=81	=81	=81	=81
1E	-cte	-ſtes	1G	-di-	prae-	2.e\	-cte	prae-
.	.	.	.	.	.	4f\	.	.
1r	.	.	1E	-cte	-ſtes	2g\	.	-ſtes
.	.	.	.	.	.	2c/	.	.
=82	=82	=82	=82	=82	=82	=82	=82	=82
*lig	*	*	*lig	*	*	*lig	*	*
1D	sal-	o-	1F	ſal-	o-	1d	ſal-	o-
!	!	!	!	!	!	!LO:SIC:v:t=custos f	!	!
1AA	.	.	1E	.	.	1e	.	.
!	!	!	!	!	!	!LO:LB:g=original	!	!
*Xlig	*	*	*Xlig	*	*	*Xlig	*	*
=83	=83	=83	=83	=83	=83	=83	=83	=83
2D/	-va	-ret	1D	-va	-ret	1f	-va	-ret
2.F\	.	.	.	.	.	.	.	.
.	.	.	1F	re-	vir-	2r	.	.
4E\	re-	vir-	.	.	.	.	.	.
4D/	.	.	.	.	.	2f\	.	.
4C/	.	.	.	.	.	.	.	.
=84	=84	=84	=84	=84	=84	=84	=84	=84
*	*	*	*lig	*	*	*	*	*
1D	-plens	-go	1F	-plens	-go	2d\	.	.
.	.	.	.	.	.	2.f\	.	.
1C	.	.	1G	.	.	.	.	.
.	.	.	.	.	.	4e\	.	.
.	.	.	.	.	.	1e	.	.
*	*	*	*Xlig	*	*	*	*	*
=85	=85	=85	=85	=85	=85	=85	=85	=85
*	*	*	*lig	*	*	*	*	*
1F	.	.	1A	.	.	.	.	.
.	.	.	.	.	.	2d\	.	.
1E	.	.	1G	.	.	1e	.	.
*	*	*	*Xlig	*	*	*	*	*
=86	=86	=86	=86	=86	=86	=86	=86	=86
1C	.	.	1G	gra-	Ma-	1e	.	.
!	!	!	!LO:SIC:v:t=custos E	!	!	!	!	!
2.D/	.	.	1F	.	.	2f\	.	.
.	.	.	.	.	.	2d\	re-	vir-
!LO:SIC:v:t=custos AA	!	!	!	!	!	!	!	!
4C/	.	.	.	.	.	.	.	.
!LO:LB:g=original	!	!	!	!	!	!	!	!
!	!	!	!LO:LB:g=original	!	!	!	!	!
=87	=87	=87	=87	=87	=87	=87	=87	=87
2AA/	.	.	1E	.	.	2e\	-plens	-go
2C/	gra-	Ma-	.	.	.	2c/	.	MA-
1BB	-ti-	-ri-	1D	-ti-	-ri-	1d	.	-RI-
=88	=88	=88	=88	=88	=88	=88	=88	=88
1AA	-a-	-a	[0El	-a	-a	2.c/	gra-	-A
.	.	.	.	.	.	4f\	-ti-	.
2r	.	.	.	.	.	1.e	-a	.
2AA/	-sal-	o-	.	.	.	.	.	.
=89	=89	=89	=89	=89	=89	=89	=89	=89
2C/	-va	-ret	0E_	.	.	.	.	.
!	!	!	!	!	!	!LO:SIC:v:t=custos g	!	!
2C/	re-	Vir-	.	.	.	2e\	.	.
!	!	!	!	!	!	!LO:LB:g=original	!	!
2GG/	-plens	-go	.	.	.	2g\	.	.
2.C/	.	.	.	.	.	2g\	.	.
=90	=90	=90	=90	=90	=90	=90	=90	=90
.	.	.	0E_	.	.	2c/	.	.
4BB/	gra-	MA-	.	.	.	.	.	.
4AA/	.	.	.	.	.	1e	.	.
4GG/	.	.	.	.	.	.	.	.
2AA/	-ti-	-RI-	.	.	.	.	.	.
2AA/	-a	-A	.	.	.	2e\	.	.
=91	=91	=91	=91	=91	=91	=91	=91	=91
!LO:N:vis=00	!	!	!	!	!	!	!	!
!	!	!	!	!	!	!LO:N:vis=00	!	!
0EE	.	.	0E]	.	.	0e	.	.
==	==	==	==	==	==	==	==	==
*-	*-	*-	*-	*-	*-	*-	*-	*-
!!!system-decoration: [(s1,s2,s3)]
!!!ENC: Anastazja Marusiak
!!!END: 2022-01-20
!!!ENC: Natalia Wrzos
!!!END: 2022-01-25
!!!RDF**kern: l = terminal long
